src/lib/packages/icons/src/assets/line/mouse.svg

<svg xmlns="http://www.w3.org/2000/svg" width="24" height="24" fill="none"><path fill="currentColor" d="M12 2.25c-4.925 0-7.75 2.825-7.75 7.75v4c0 4.925 2.825 7.75 7.75 7.75s7.75-2.825 7.75-7.75v-4c0-4.925-2.825-7.75-7.75-7.75Zm0 5a.75.75 0 0 1 .75.75v1.5a.75.75 0 0 1-1.5 0V8a.75.75 0 0 1 .75-.75ZM18.25 14c0 5.166-3.398 6.25-6.25 6.25S5.75 19.166 5.75 14v-4c0-4.719 2.835-6.028 5.5-6.22v2.108A2.247 2.247 0 0 0 9.75 8v1.5c0 1.241 1.01 2.25 2.25 2.25s2.25-1.009 2.25-2.25V8c0-.976-.629-1.801-1.5-2.112V3.78c2.665.192 5.5 1.501 5.5 6.22v4Z"/></svg>

<svg width="24" height="24" viewBox="0 0 24 24" fill="none" xmlns="http://www.w3.org/2000/svg">
<path d="M12 2.25C7.075 2.25 4.25 5.075 4.25 10V14C4.25 18.925 7.075 21.75 12 21.75C16.925 21.75 19.75 18.925 19.75 14V10C19.75 5.075 16.925 2.25 12 2.25ZM12 7.25C12.413 7.25 12.75 7.586 12.75 8V9.5C12.75 9.914 12.413 10.25 12 10.25C11.587 10.25 11.25 9.914 11.25 9.5V8C11.25 7.586 11.587 7.25 12 7.25ZM18.25 14C18.25 19.166 14.852 20.25 12 20.25C9.148 20.25 5.75 19.166 5.75 14V10C5.75 5.281 8.585 3.97203 11.25 3.78003V5.88794C10.379 6.19894 9.75 7.023 9.75 8V9.5C9.75 10.741 10.76 11.75 12 11.75C13.24 11.75 14.25 10.741 14.25 9.5V8C14.25 7.024 13.621 6.19894 12.75 5.88794V3.78003C15.415 3.97203 18.25 5.281 18.25 10V14Z" fill="currentColor"/>
</svg>
